src/assets/flags/ao.svg

<?xml version="1.0" encoding="UTF-8"?>
<svg xmlns="http://www.w3.org/2000/svg" xmlns:xlink="http://www.w3.org/1999/xlink" width="25px" height="px" viewBox="0 0 25 19" version="1.1">
<g id="surface1">
<path style=" stroke:none;fill-rule:evenodd;fill:rgb(100%,0%,0%);fill-opacity:1;" d="M 0 0 L 25 0 L 25 9.640625 L 0 9.640625 Z M 0 0 "/>
<path style=" stroke:none;fill-rule:evenodd;fill:rgb(0%,0%,0.392157%);fill-opacity:1;" d="M 0 9.359375 L 25 9.359375 L 25 19 L 0 19 Z M 0 9.359375 "/>
<path style=" stroke:none;fill-rule:evenodd;fill:rgb(100%,92.54902%,0%);fill-opacity:1;" d="M 8.933594 5.867188 C 15.386719 7.582031 11.238281 15.984375 6.148438 12.484375 L 5.804688 13.023438 C 8.800781 15.183594 11.765625 13.441406 12.601562 11.1875 C 13.46875 8.859375 12.304688 5.585938 8.984375 5.25 Z M 8.933594 5.867188 "/>
<path style=" stroke:none;fill-rule:evenodd;fill:rgb(100%,92.54902%,0%);fill-opacity:1;" d="M 6.640625 13.09375 L 7.488281 13.492188 L 7.089844 14.355469 L 6.242188 13.953125 Z M 12.460938 9.15625 L 13.398438 9.15625 L 13.398438 10.105469 L 12.460938 10.105469 Z M 12.003906 7.617188 L 12.875 7.277344 L 13.214844 8.15625 L 12.34375 8.503906 Z M 10.988281 6.464844 L 11.65625 5.796875 L 12.316406 6.46875 L 11.652344 7.136719 Z M 9.964844 4.886719 L 10.839844 5.222656 L 10.507812 6.109375 L 9.632812 5.773438 Z M 12.34375 10.6875 L 13.214844 11.039062 L 12.863281 11.917969 L 11.996094 11.566406 Z M 9.613281 13.457031 L 10.472656 13.089844 L 10.84375 13.960938 L 9.984375 14.332031 Z M 8.070312 13.570312 L 9.007812 13.570312 L 9.007812 14.519531 L 8.070312 14.519531 Z M 9.683594 8.976562 L 8.890625 8.382812 L 8.097656 8.960938 L 8.410156 8.050781 L 7.617188 7.457031 L 8.574219 7.457031 L 8.90625 6.5625 L 9.210938 7.460938 L 10.175781 7.449219 L 9.410156 8.054688 Z M 9.683594 8.976562 "/>
<path style=" stroke:none;fill-rule:evenodd;fill:rgb(100%,93.333334%,0%);fill-opacity:1;" d="M 13.125 13.710938 C 13.078125 13.726562 12.882812 14.203125 12.746094 14.433594 L 12.890625 14.472656 C 13.421875 14.660156 13.6875 14.835938 13.914062 15.164062 C 14.023438 15.269531 14.191406 15.28125 14.3125 15.191406 C 14.3125 15.191406 14.421875 15.152344 14.5625 14.996094 C 14.679688 14.816406 14.648438 14.675781 14.507812 14.554688 C 14.078125 14.238281 13.613281 14 13.125 13.710938 "/>
<path style=" stroke:none;fill-rule:evenodd;fill:rgb(0%,0%,0.392157%);fill-opacity:1;" d="M 14.269531 14.757812 C 14.269531 14.851562 14.195312 14.929688 14.101562 14.929688 C 14.003906 14.929688 13.929688 14.851562 13.929688 14.757812 C 13.929688 14.664062 14.003906 14.585938 14.097656 14.585938 C 14.191406 14.585938 14.265625 14.664062 14.265625 14.757812 Z M 13.433594 14.21875 C 13.433594 14.3125 13.359375 14.390625 13.265625 14.390625 C 13.167969 14.390625 13.09375 14.3125 13.09375 14.21875 C 13.09375 14.125 13.167969 14.046875 13.265625 14.046875 C 13.359375 14.046875 13.433594 14.125 13.433594 14.21875 M 13.859375 14.496094 C 13.859375 14.589844 13.785156 14.667969 13.691406 14.667969 C 13.59375 14.667969 13.519531 14.589844 13.519531 14.496094 C 13.519531 14.398438 13.59375 14.324219 13.691406 14.324219 C 13.785156 14.324219 13.859375 14.398438 13.859375 14.496094 "/>
<path style=" stroke:none;fill-rule:evenodd;fill:rgb(100%,93.333334%,0%);fill-opacity:1;" d="M 12.675781 14.394531 C 11.011719 13.433594 9.265625 12.398438 7.597656 11.4375 C 6.867188 10.972656 6.832031 10.113281 7.324219 9.460938 C 7.371094 9.371094 7.433594 9.390625 7.457031 9.441406 C 7.515625 9.757812 7.691406 10.085938 7.902344 10.292969 C 9.632812 11.394531 11.347656 12.523438 13.046875 13.679688 C 12.914062 13.910156 12.8125 14.167969 12.675781 14.390625 Z M 12.675781 14.394531 "/>
<path style=" stroke:none;fill-rule:evenodd;fill:rgb(100%,92.54902%,0%);fill-opacity:1;" d="M 11.609375 12.09375 L 12.304688 12.726562 L 11.679688 13.429688 L 10.984375 12.796875 Z M 11.609375 12.09375 "/>
<path style="fill:none;stroke-width:3;stroke-linecap:butt;stroke-linejoin:miter;stroke:rgb(0%,0%,0%);stroke-opacity:1;stroke-miterlimit:4;" d="M 331.5 348.848684 L 206.5 273.256579 M 316.1 331.381579 L 274 304.144737 M 292.2 346.776316 L 249.3 322.006579 " transform="matrix(0.0390625,0,0,0.0395833,0,0)"/>
</g>
</svg>

<svg xmlns="http://www.w3.org/2000/svg" width="25" height="px" viewBox="0 0 25 19"><path d="M0 0h25v9.64H0Zm0 0" style="stroke:none;fill-rule:evenodd;fill:red;fill-opacity:1"/><path d="M0 9.36h25V19H0Zm0 0" style="stroke:none;fill-rule:evenodd;fill:#000001;fill-opacity:1"/><path d="M8.934 5.867c6.453 1.715 2.304 10.117-2.786 6.617l-.343.54c2.996 2.16 5.96.417 6.797-1.836.867-2.329-.297-5.602-3.618-5.938Zm0 0" style="stroke:none;fill-rule:evenodd;fill:#ffec00;fill-opacity:1"/><path d="m6.64 13.094.848.398-.398.863-.848-.402Zm5.82-3.938h.938v.95h-.937Zm-.456-1.539.871-.34.34.88-.871.347Zm-1.016-1.152.668-.668.66.672-.664.668ZM9.965 4.887l.875.336-.332.886-.875-.336Zm2.379 5.8.87.352-.35.879-.868-.352Zm-2.73 2.77.859-.367.37.87-.859.372Zm-1.544.113h.938v.95H8.07Zm1.614-4.593-.793-.594-.793.578.312-.91-.793-.594h.957l.332-.894.305.898.965-.012-.766.606Zm0 0" style="stroke:none;fill-rule:evenodd;fill:#ffec00;fill-opacity:1"/><path d="M13.125 13.71c-.047.017-.242.493-.379.724l.145.039c.53.187.797.363 1.023.691.11.106.277.117.399.027 0 0 .109-.039.25-.195.117-.18.085-.32-.055-.441-.43-.317-.895-.555-1.383-.844" style="stroke:none;fill-rule:evenodd;fill:#fe0;fill-opacity:1"/><path d="M14.27 14.758a.17.17 0 1 1-.34 0 .17.17 0 0 1 .168-.172.17.17 0 0 1 .168.172Zm-.836-.54a.17.17 0 1 1-.34 0 .17.17 0 1 1 .34 0m.425.278a.17.17 0 1 1-.34 0c0-.098.075-.172.172-.172.094 0 .168.074.168.172" style="stroke:none;fill-rule:evenodd;fill:#000001;fill-opacity:1"/><path d="M12.676 14.395c-1.664-.961-3.41-1.997-5.078-2.957-.73-.465-.766-1.325-.274-1.977.047-.09.11-.07.133-.02.059.317.234.645.445.852q2.596 1.652 5.145 3.387c-.133.23-.235.488-.371.71Zm0 0" style="stroke:none;fill-rule:evenodd;fill:#fe0;fill-opacity:1"/><path d="m11.61 12.094.695.633-.625.703-.696-.633Zm0 0" style="stroke:none;fill-rule:evenodd;fill:#ffec00;fill-opacity:1"/><path d="m331.5 348.849-125-75.592m109.6 58.125L274 304.145m18.2 42.631-42.9-24.77" style="fill:none;stroke-width:3;stroke-linecap:butt;stroke-linejoin:miter;stroke:#000;stroke-opacity:1;stroke-miterlimit:4" transform="scale(.03906 .03958)"/></svg>
